svgs/tkla_gelsin.svg

<svg xmlns="http://www.w3.org/2000/svg" viewBox="0 0 192 192"><path d="M84.193 173.114c-2.21-2.564-2.567-4.137-3.204-14.08-.693-10.838-.795-11.212-3.188-11.799-1.359-.333-4.651-2.596-7.315-5.03-6.1-5.57-7.983-10.653-7.983-21.544v-8.125h23.876l-.188-2.59c-.151-2.082.366-2.74 2.64-3.353 2.568-.693 2.961-.454 4.264 2.59l1.435 3.353h34.973v7.146c0 13.294-4.854 22.512-13.965 26.523-2.219.977-4.061 2.479-4.091 3.337-.031.858-.407 6.134-.835 11.724-.72 9.397-.983 10.336-3.5 12.449-2.41 2.024-3.733 2.285-11.576 2.285-8.583 0-8.932-.089-11.343-2.886Zm18.671-5.657c.273-.94.785-8.519 1.139-16.843.353-8.323.866-15.902 1.138-16.842.448-1.543-.442-1.708-9.172-1.708H86.3l.576 6.59c.317 3.625.864 11.643 1.215 17.819.351 6.175.838 11.557 1.084 11.96.245.403 3.314.732 6.819.732 5.215 0 6.464-.31 6.87-1.708Zm-23.361-31.374c0-2.971-.433-3.902-2-4.302-1.457-.372-2-1.332-2-3.532v-3.02h13v-5.858h-19v3.668c0 5.681 1.669 10.062 5.179 13.599 1.767 1.78 3.575 3.236 4.017 3.236.442 0 .804-1.706.804-3.791Zm36.385 1.752c3.649-2.802 5.46-6.581 6.234-13.01l.656-5.454H109.14c-14.265 0-14.673.135-13.03 4.314.497 1.264 2.401 1.544 10.5 1.544h9.893v3.02c0 2.2-.544 3.16-2 3.532-1.1.28-2.006 1.228-2.014 2.105-.008.877-.285 2.583-.617 3.792-.752 2.742.582 2.795 4.016.157Zm-17.369-33.37c-3.127-1.958-5.122-2.231-19.5-2.669l-16.016-.488v-6.835h16c14.657 0 16.359.185 20.281 2.197 5.22 2.679 6.21 2.708 10.412.307 2.323-1.329 5.388-1.931 10.307-2.027 10.157-.198 9.664-.367 9.313 3.185l-.313 3.173-7.502.488c-5.621.366-8.292 1.039-10.654 2.685-3.978 2.772-7.881 2.767-12.328-.016ZM63.183 86.513c-1.233-1.204-.708-12.584.81-17.576.82-2.695 2.846-6.727 4.504-8.961 2.729-3.679 9.446-9.257 12.243-10.167.677-.221.241-1.505-1.123-3.307l-2.231-2.946-12.67 1.801c-6.969.99-13.243 1.586-13.942 1.324-1.338-.501-1.813-6.366-.521-6.437.412-.023 6.373-.812 13.245-1.754 9.238-1.266 12.544-2.082 12.683-3.132.897-6.765 1.817-9.225 4.613-12.333 10.063-11.191 27.422-8.618 33.217 4.923 1.482 3.464 1.844 3.705 4.797 3.196 8.549-1.476 20.904-2.706 22.22-2.213 1.543.578 2.057 5.029.677 5.862-.439.265-6.551 1.235-13.581 2.154-12.196 1.596-12.825 1.79-13.709 4.214-.509 1.398-1.659 3.809-2.555 5.357-1.485 2.568-1.489 2.893-.04 3.684 5.977 3.267 10.48 7.825 13.575 13.741 3.003 5.744 3.404 7.415 3.5 14.603l.108 8.116-32.57.258c-17.914.141-32.876-.042-33.25-.407Zm58.569-10.333c-.451-5.724-3.264-11.25-7.809-15.341-6.589-5.93-8.666-6.436-13.524-3.298-3.896 2.518-4.098 2.545-7.212.972-1.762-.89-3.955-2.145-4.873-2.789-2.295-1.611-10.289 3.239-14.019 8.505-2.954 4.17-5.485 11.99-4.606 14.228.447 1.137 4.964 1.332 26.416 1.14l25.878-.23Zm-15.803-2.784c-1.031-1.628 1.287-3.494 2.667-2.148 1.154 1.127.431 3.21-1.113 3.21-.485 0-1.185-.478-1.554-1.062Zm5.212-4.479c-.362-.354-.658-1.229-.658-1.945 0-1.454 2.578-1.782 3.43-.436.68 1.075-1.868 3.264-2.772 2.381Zm-7.485-2.914c.421-2.136 3.327-2.439 3.327-.346 0 .798-.829 1.607-1.841 1.798-1.336.251-1.744-.147-1.486-1.452Zm-3.002-17.828c8.452-7.264 9.889-15.492 3.752-21.484-10.507-10.259-26.471 2.902-18.858 15.547 1.908 3.169 8.653 9.716 10.044 9.749.335.008 2.613-1.707 5.062-3.812Zm-8.949-8.433c-4.117-2.816-2.243-10.955 2.599-11.289 4.978-.343 8.179 2.054 8.179 6.125 0 5.528-6.024 8.414-10.778 5.164Z"/></svg>

<svg
    xmlns="http://www.w3.org/2000/svg"
    viewBox="0 0 192 192"
    id="vector">
    <path
        id="path"
        d="M 84.193 173.114 C 81.983 170.55 81.626 168.977 80.989 159.034 C 80.296 148.196 80.194 147.822 77.801 147.235 C 76.442 146.902 73.15 144.639 70.486 142.205 C 64.386 136.635 62.503 131.552 62.503 120.661 L 62.503 112.536 L 86.379 112.536 L 86.191 109.946 C 86.04 107.864 86.557 107.206 88.831 106.593 C 91.399 105.9 91.792 106.139 93.095 109.183 L 94.53 112.536 L 129.503 112.536 L 129.503 119.682 C 129.503 132.976 124.649 142.194 115.538 146.205 C 113.319 147.182 111.477 148.684 111.447 149.542 C 111.416 150.4 111.04 155.676 110.612 161.266 C 109.892 170.663 109.629 171.602 107.112 173.715 C 104.702 175.739 103.379 176 95.536 176 C 86.953 176 86.604 175.911 84.193 173.114 Z M 102.864 167.457 C 103.137 166.517 103.649 158.938 104.003 150.614 C 104.356 142.291 104.869 134.712 105.141 133.772 C 105.589 132.229 104.699 132.064 95.969 132.064 L 86.3 132.064 L 86.876 138.654 C 87.193 142.279 87.74 150.297 88.091 156.473 C 88.442 162.648 88.929 168.03 89.175 168.433 C 89.42 168.836 92.489 169.165 95.994 169.165 C 101.209 169.165 102.458 168.855 102.864 167.457 Z M 79.503 136.083 C 79.503 133.112 79.07 132.181 77.503 131.781 C 76.046 131.409 75.503 130.449 75.503 128.249 L 75.503 125.229 L 88.503 125.229 L 88.503 119.371 L 69.503 119.371 L 69.503 123.039 C 69.503 128.72 71.172 133.101 74.682 136.638 C 76.449 138.418 78.257 139.874 78.699 139.874 C 79.141 139.874 79.503 138.168 79.503 136.083 Z M 115.888 137.835 C 119.537 135.033 121.348 131.254 122.122 124.825 L 122.778 119.371 L 109.14 119.371 C 94.875 119.371 94.467 119.506 96.11 123.685 C 96.607 124.949 98.511 125.229 106.61 125.229 L 116.503 125.229 L 116.503 128.249 C 116.503 130.449 115.959 131.409 114.503 131.781 C 113.403 132.061 112.497 133.009 112.489 133.886 C 112.481 134.763 112.204 136.469 111.872 137.678 C 111.12 140.42 112.454 140.473 115.888 137.835 Z M 98.519 104.465 C 95.392 102.507 93.397 102.234 79.019 101.796 L 63.003 101.308 L 63.003 94.473 L 79.003 94.473 C 93.66 94.473 95.362 94.658 99.284 96.67 C 104.504 99.349 105.494 99.378 109.696 96.977 C 112.019 95.648 115.084 95.046 120.003 94.95 C 130.16 94.752 129.667 94.583 129.316 98.135 L 129.003 101.308 L 121.501 101.796 C 115.88 102.162 113.209 102.835 110.847 104.481 C 106.869 107.253 102.966 107.248 98.519 104.465 Z M 63.183 86.513 C 61.95 85.309 62.475 73.929 63.993 68.937 C 64.813 66.242 66.839 62.21 68.497 59.976 C 71.226 56.297 77.943 50.719 80.74 49.809 C 81.417 49.588 80.981 48.304 79.617 46.502 L 77.386 43.556 L 64.716 45.357 C 57.747 46.347 51.473 46.943 50.774 46.681 C 49.436 46.18 48.961 40.315 50.253 40.244 C 50.665 40.221 56.626 39.432 63.498 38.49 C 72.736 37.224 76.042 36.408 76.181 35.358 C 77.078 28.593 77.998 26.133 80.794 23.025 C 90.857 11.834 108.216 14.407 114.011 27.948 C 115.493 31.412 115.855 31.653 118.808 31.144 C 127.357 29.668 139.712 28.438 141.028 28.931 C 142.571 29.509 143.085 33.96 141.705 34.793 C 141.266 35.058 135.154 36.028 128.124 36.947 C 115.928 38.543 115.299 38.737 114.415 41.161 C 113.906 42.559 112.756 44.97 111.86 46.518 C 110.375 49.086 110.371 49.411 111.82 50.202 C 117.797 53.469 122.3 58.027 125.395 63.943 C 128.398 69.687 128.799 71.358 128.895 78.546 L 129.003 86.662 L 96.433 86.92 C 78.519 87.061 63.557 86.878 63.183 86.513 Z M 121.752 76.18 C 121.301 70.456 118.488 64.93 113.943 60.839 C 107.354 54.909 105.277 54.403 100.419 57.541 C 96.523 60.059 96.321 60.086 93.207 58.513 C 91.445 57.623 89.252 56.368 88.334 55.724 C 86.039 54.113 78.045 58.963 74.315 64.229 C 71.361 68.399 68.83 76.219 69.709 78.457 C 70.156 79.594 74.673 79.789 96.125 79.597 L 122.003 79.367 Z M 105.949 73.396 C 104.918 71.768 107.236 69.902 108.616 71.248 C 109.77 72.375 109.047 74.458 107.503 74.458 C 107.018 74.458 106.318 73.98 105.949 73.396 Z M 111.161 68.917 C 110.799 68.563 110.503 67.688 110.503 66.972 C 110.503 65.518 113.081 65.19 113.933 66.536 C 114.613 67.611 112.065 69.8 111.161 68.917 Z M 103.676 66.003 C 104.097 63.867 107.003 63.564 107.003 65.657 C 107.003 66.455 106.174 67.264 105.162 67.455 C 103.826 67.706 103.418 67.308 103.676 66.003 Z M 100.674 48.175 C 109.126 40.911 110.563 32.683 104.426 26.691 C 93.919 16.432 77.955 29.593 85.568 42.238 C 87.476 45.407 94.221 51.954 95.612 51.987 C 95.947 51.995 98.225 50.28 100.674 48.175 Z M 91.725 39.742 C 87.608 36.926 89.482 28.787 94.324 28.453 C 99.302 28.11 102.503 30.507 102.503 34.578 C 102.503 40.106 96.479 42.992 91.725 39.742 Z"
        fill="#000000"
        stroke-width="12"/>
</svg>
